icons/op-user-24.svg

<svg width="24" height="24" viewBox="0 0 24 24" fill="none" xmlns="http://www.w3.org/2000/svg">
<path d="M19.6624 16.2039C19.1815 15.4824 17.5785 15.0118 15.9755 14.3843C14.4045 13.7255 14.0198 13.5059 14.0198 13.5059L13.9877 12C13.9877 12 14.5969 11.5608 14.7893 10.149C15.1419 10.2431 15.5587 9.58431 15.5587 9.23922C15.5908 8.92549 15.5266 8.01569 15.0457 8.1098C15.1419 7.41961 15.206 6.79216 15.174 6.44706C15.0778 5.2549 13.8595 4 12 4C10.1405 4 8.9222 5.2549 8.82602 6.44706C8.79396 6.79216 8.85808 7.41961 8.95426 8.1098C8.47335 8.01569 8.40923 8.92549 8.44129 9.23922C8.44129 9.58431 8.85808 10.2431 9.21074 10.149C9.40311 11.5608 10.0123 12 10.0123 12L9.98019 13.5059C9.98019 13.5059 9.59547 13.7255 8.02451 14.3843C6.42149 15.0118 4.81847 15.4824 4.33756 16.2039C3.88872 16.8627 4.01696 20 4.01696 20H19.983C19.983 20 20.1113 16.8627 19.6624 16.2039Z" fill="black"/>
</svg>

<svg xmlns="http://www.w3.org/2000/svg" width="24" height="24" viewBox="0 0 24 24"><path d="M19.662 16.204c-.481-.722-2.084-1.192-3.686-1.82-1.571-.658-1.956-.878-1.956-.878L13.988 12s.609-.439.801-1.851c.353.094.77-.565.77-.91.032-.314-.032-1.223-.513-1.129.096-.69.16-1.318.128-1.663C15.078 5.255 13.86 4 12 4c-1.86 0-3.078 1.255-3.174 2.447-.032.345.032.973.128 1.663-.481-.094-.545.815-.513 1.129 0 .345.417 1.004.77.91.192 1.412.801 1.851.801 1.851l-.032 1.506s-.385.22-1.955.878c-1.604.628-3.207 1.098-3.687 1.82-.449.659-.321 3.796-.321 3.796h15.966s.128-3.137-.321-3.796Z"/></svg>
